src/icons/icon_establishment.svg

<?xml version="1.0" encoding="UTF-8"?>
<svg width="75px" height="75px" viewBox="0 0 75 75" version="1.1" xmlns="http://www.w3.org/2000/svg" xmlns:xlink="http://www.w3.org/1999/xlink">
    <!-- Generator: sketchtool 46.2 (44496) - http://www.bohemiancoding.com/sketch -->
    <title>57A927DA-A399-4E02-BCE6-3F2D7FD7E59F</title>
    <desc>Created with sketchtool.</desc>
    <defs>
        <rect id="path-1" x="0" y="0" width="75" height="75" rx="37.5"></rect>
    </defs>
    <g id="Symbols" stroke="none" stroke-width="1" fill="none" fill-rule="evenodd">
        <g id="icon_establishment">
            <g>
                <g id="Rectangle-3">
                    <use fill="#FFFFFF" fill-rule="evenodd" xlink:href="#path-1"></use>
                    <rect stroke="#9B9B9B" stroke-width="1" x="0.5" y="0.5" width="74" height="74" rx="37"></rect>
                </g>
                <path d="M25.5,54.692 C25.224,54.692 25,54.468 25,54.192 L25,46.5 C25,46.224 25.224,46 25.5,46 C25.776,46 26,46.224 26,46.5 L26,54.192 C26,54.468 25.776,54.692 25.5,54.692 Z" id="Shape" fill="#000000" fill-rule="nonzero"></path>
                <path d="M33.5,54.545 C33.224,54.545 33,54.321 33,54.045 L33,41.5 C33,41.224 33.224,41 33.5,41 C33.776,41 34,41.224 34,41.5 L34,54.045 C34,54.321 33.776,54.545 33.5,54.545 Z" id="Shape" fill="#000000" fill-rule="nonzero"></path>
                <path d="M41.5,54.032 C41.224,54.032 41,53.808 41,53.532 L41,37.5 C41,37.224 41.224,37 41.5,37 C41.776,37 42,37.224 42,37.5 L42,53.532 C42,53.808 41.776,54.032 41.5,54.032 Z" id="Shape" fill="#000000" fill-rule="nonzero"></path>
                <path d="M49.5,54.163 C49.224,54.163 49,53.939 49,53.663 L49,32.5 C49,32.224 49.224,32 49.5,32 C49.776,32 50,32.224 50,32.5 L50,53.663 C50,53.939 49.776,54.163 49.5,54.163 Z" id="Shape" fill="#000000" fill-rule="nonzero"></path>
                <path d="M45.1207397,25.2445249 C44.9747397,25.2445249 44.8277397,25.1805249 44.7287397,25.0555249 L41.6647397,21.2025249 L37.8117397,24.2665249 C37.5977397,24.4375249 37.2817397,24.4045249 37.1087397,24.1865249 C36.9367397,23.9705249 36.9727397,23.6565249 37.1887397,23.4845249 L41.4327397,20.1085249 C41.6487397,19.9385249 41.9637397,19.9705249 42.1357397,20.1885249 L45.5117397,24.4325249 C45.6837397,24.6485249 45.6477397,24.9625249 45.4317397,25.1345249 C45.3407397,25.2085249 45.2307397,25.2445249 45.1207397,25.2445249 Z" id="Path" fill="#000000"></path>
                <path d="M25.5,38.159 C25.224,38.159 25,37.935 25,37.659 C25,37.383 25.224,37.159 25.5,37.159 C34.135,37.159 41.159,30.135 41.159,21.5 C41.159,21.224 41.383,21 41.659,21 C41.935,21 42.159,21.224 42.159,21.5 C42.159,30.686 34.686,38.159 25.5,38.159 Z" id="Path" fill="#000000"></path>
            </g>
        </g>
    </g>
</svg>

<svg height="75" viewBox="0 0 75 75" width="75" xmlns="http://www.w3.org/2000/svg"><g fill="none" fill-rule="evenodd"><rect fill="#fff" fill-rule="evenodd" height="75" rx="37.5" width="75"/><rect height="74" rx="37" stroke="#9b9b9b" width="74" x=".5" y=".5"/><g fill="#000"><path d="m25.5 54.692c-.276 0-.5-.224-.5-.5v-7.692c0-.276.224-.5.5-.5s.5.224.5.5v7.692c0 .276-.224.5-.5.5z" fill-rule="nonzero"/><path d="m33.5 54.545c-.276 0-.5-.224-.5-.5v-12.545c0-.276.224-.5.5-.5s.5.224.5.5v12.545c0 .276-.224.5-.5.5z" fill-rule="nonzero"/><path d="m41.5 54.032c-.276 0-.5-.224-.5-.5v-16.032c0-.276.224-.5.5-.5s.5.224.5.5v16.032c0 .276-.224.5-.5.5z" fill-rule="nonzero"/><path d="m49.5 54.163c-.276 0-.5-.224-.5-.5v-21.163c0-.276.224-.5.5-.5s.5.224.5.5v21.163c0 .276-.224.5-.5.5z" fill-rule="nonzero"/><path d="m45.1207397 25.2445249c-.146 0-.293-.064-.392-.189l-3.064-3.853-3.853 3.064c-.214.171-.53.138-.703-.08-.172-.216-.136-.53.08-.702l4.244-3.376c.216-.17.531-.138.703.08l3.376 4.244c.172.216.136.53-.08.702-.091.074-.201.11-.311.11z"/><path d="m25.5 38.159c-.276 0-.5-.224-.5-.5s.224-.5.5-.5c8.635 0 15.659-7.024 15.659-15.659 0-.276.224-.5.5-.5s.5.224.5.5c0 9.186-7.473 16.659-16.659 16.659z"/></g></g></svg>
